images/try.svg

<svg width="65" height="65" viewBox="0 0 65 65" fill="none" xmlns="http://www.w3.org/2000/svg">
<path fill-rule="evenodd" clip-rule="evenodd" d="M9.52614 12.1599C8.31427 12.3338 7.38818 13.3541 7.38818 14.5784V37.5895C7.38818 49.01 27.2771 60.7069 32.0216 60.7069C36.7675 60.7069 56.6551 49.01 56.6551 37.5895V14.5784C56.6551 13.3541 55.729 12.3338 54.5171 12.1599C51.5289 11.7312 47.5694 10.911 43.4902 9.34425C39.0913 7.65348 35.5745 5.83749 33.2621 4.51927C32.4933 4.08099 31.5503 4.08152 30.7817 4.52011C28.4715 5.83826 24.9531 7.65384 20.5584 9.34425C16.4749 10.911 12.5146 11.7312 9.52614 12.1599Z" stroke="#F7F6FF" stroke-width="2.3871"/>
<path fill-rule="evenodd" clip-rule="evenodd" d="M32.0216 43.6082C38.2946 43.6082 43.3799 38.5229 43.3799 32.2499C43.3799 25.9769 38.2946 20.8916 32.0216 20.8916C25.7486 20.8916 20.6633 25.9769 20.6633 32.2499C20.6633 38.5229 25.7486 43.6082 32.0216 43.6082ZM37.9209 29.5357C38.263 29.1836 38.2549 28.6209 37.9027 28.2788C37.5506 27.9367 36.9879 27.9448 36.6458 28.297L30.7721 34.3431L27.3624 31.2001C27.0014 30.8674 26.439 30.8902 26.1063 31.2512C25.7736 31.6122 25.7965 32.1745 26.1575 32.5072L30.2039 36.2371C30.5582 36.5637 31.1081 36.5485 31.4439 36.2029L37.9209 29.5357Z" fill="#79EFBD"/>
</svg>

<svg xmlns="http://www.w3.org/2000/svg" width="65" height="65" fill="none"><path stroke="#F7F6FF" stroke-width="2.387" d="M9.526 12.16c-1.212.174-2.138 1.194-2.138 2.418V37.59c0 11.421 19.89 23.118 24.634 23.118 4.745 0 24.633-11.697 24.633-23.117V14.578c0-1.224-.926-2.244-2.138-2.418-2.988-.429-6.948-1.249-11.027-2.816A75.744 75.744 0 0 1 33.262 4.52a2.503 2.503 0 0 0-2.48.001 75.732 75.732 0 0 1-10.224 4.824c-4.083 1.567-8.043 2.387-11.032 2.816Z" clip-rule="evenodd"/><path fill="#79EFBD" fill-rule="evenodd" d="M32.022 43.608c6.273 0 11.358-5.085 11.358-11.358 0-6.273-5.085-11.358-11.358-11.358-6.273 0-11.359 5.085-11.359 11.358 0 6.273 5.086 11.358 11.359 11.358Zm5.899-14.072a.889.889 0 1 0-1.275-1.239l-5.874 6.046-3.41-3.143a.889.889 0 0 0-1.204 1.307l4.046 3.73a.889.889 0 0 0 1.24-.034l6.477-6.667Z" clip-rule="evenodd"/></svg>
